site/static/img/page-mission/partenaire.svg

<svg height="130" viewBox="0 0 130 130" width="130" xmlns="http://www.w3.org/2000/svg"><g fill="none" fill-rule="evenodd"><circle cx="65" cy="65" fill="#ff9ca8" r="65"/><g transform="translate(11 42)"><path d="m102 48.9994255c0 1.1042803-10.0735553 2.0005745-22.5005279 2.0005745-12.4259168 0-22.4994721-.8962942-22.4994721-2.0005745 0-1.1042804 10.0735553-1.9994255 22.4994721-1.9994255 12.4269726 0 22.5005279.8951451 22.5005279 1.9994255" fill="#474747" opacity=".211798"/><path d="m46 49.5c0 1.3811421-10.2980146 2.5-23.000516 2.5s-22.999484-1.1188579-22.999484-2.5 10.2969826-2.5 22.999484-2.5 23.000516 1.1188579 23.000516 2.5" fill="#474747" opacity=".211798"/><g fill="#c5e2e0"><path d="m98.6962259 19c-.2526123 0-.4959069-.1524608-.6191071-.4184073-.1760004-.3782861-.0403766-.8425463.3012712-1.0374209l9.608583-5.4587828c.341648-.1948746.760943-.0447065.935908.3335796.176001.378286.040377.8425462-.301271 1.0362745l-9.6085835 5.4599291c-.101459.0573161-.2101651.0848278-.3168006.0848278"/><path d="m107.758258 14c-.149077 0-.299284-.0431501-.43142-.1327696-.344458-.2334532-.43029-.6970403-.191993-1.0333899l2.482356-3.51286197c.238297-.33856244.711503-.42264985 1.055961-.18809025.344458.23345319.43029.69593391.191993 1.03338992l-2.482356 3.512862c-.147947.2080057-.383986.3208598-.624541.3208598"/><path d="m113.196296 15c-.08254 0-.166277-.0129909-.248818-.0389726l-4.392592-1.4124619c-.422273-.1369946-.651951-.5845892-.51558-1.001478.137568-.4157079.590943-.6436386 1.013216-.5078249l4.392592 1.4124619c.422273.1358136.651951.5845891.51558 1.000297-.111251.3354006-.425862.5479785-.764398.5479785"/><path d="m109.703509 14c-.255255 0-.501094-.1284177-.625583-.3524244-.177842-.3186303-.040799-.7096766.304422-.8738195l3.594489-1.7022582c.344176-.1631773.768903-.0376563.945698.280974.176796.3186303.040799.7096766-.304422.8738195l-3.59449 1.7022582c-.10252.0482773-.212363.0714504-.320114.0714504"/></g><path d="m107 12-10 5" fill="#6b6b6b"/><path d="m96.8772806 18c-.3179619 0-.6248835-.1730541-.7805523-.4750722-.2208069-.4298797-.0507856-.9578602.3797878-1.1783114l10.2465429-5.250044c.431677-.2204511.959406-.0507037 1.180213.379176s.050785.9578602-.379788 1.1783114l-10.246543 5.250044c-.128068.065033-.2649682.0958962-.3996604.0958962" fill="#fff"/><path d="m110 9-3 3" fill="#6b6b6b"/><path d="m107.838302 13c-.164807 0-.330671-.0482865-.476462-.1480087-.38138-.2624268-.476461-.7809821-.212347-1.1599264l2.32209-3.33282022c.263058-.37789457.786003-.47341792 1.166327-.21099114.381381.26242679.476462.78098213.213405 1.15992641l-2.323147 3.33282025c-.162694.2330349-.424695.3589998-.689866.3589998" fill="#fff"/><path d="m111 14-4-1" fill="#6b6b6b"/><path d="m112.093948 15c-.092392 0-.187065-.0140069-.280598-.0420208l-4.188434-1.2886379c-.474507-.1476115-.734573-.6292345-.580587-1.0785338.155127-.4492993.666135-.6949594 1.141782-.5484253l4.188435 1.2886378c.475647.1465341.735714.6292346.580586 1.0785339-.124329.3609479-.48021.5904461-.861184.5904461" fill="#fff"/><path d="m112 11-4 2" fill="#6b6b6b"/><path d="m107.948938 14c-.343933 0-.675925-.1873933-.844309-.51563-.238843-.4654992-.054934-1.0360342.41081-1.2747518l4.103318-2.1042954c.465743-.23991121 1.036577-.0560987 1.276614.4105942.238843.4654993.054934 1.0360343-.41081 1.2747518l-4.103318 2.1054891c-.138528.0704216-.286611.1038421-.432305.1038421" fill="#fff"/><path d="m34.4941115 38h-16.988223c-5.7790771 0-10.5058885-4.7278594-10.5058885-10.5058885v-16.988223c0-5.77802905 4.7268114-10.5058885 10.5058885-10.5058885h16.988223c5.7780291 0 10.5058885 4.72785945 10.5058885 10.5058885v16.988223c0 5.7780291-4.7278594 10.5058885-10.5058885 10.5058885" fill="#c5e2e0"/><path d="m35.4941115 38h-16.988223c-5.7790771 0-10.5058885-4.7278594-10.5058885-10.5058885v-16.988223c0-5.77802905 4.7268114-10.5058885 10.5058885-10.5058885h16.988223c5.7780291 0 10.5058885 4.72785945 10.5058885 10.5058885v16.988223c0 5.7780291-4.7278594 10.5058885-10.5058885 10.5058885" fill="#fff"/><path d="m88.4941115 38h-16.988223c-5.7780291 0-10.5058885-4.7278594-10.5058885-10.5058885v-16.988223c0-5.77802905 4.7278594-10.5058885 10.5058885-10.5058885h16.988223c5.7790771 0 10.5058885 4.72785945 10.5058885 10.5058885v16.988223c0 5.7780291-4.7268114 10.5058885-10.5058885 10.5058885" fill="#c5e2e0"/><path d="m90.4941115 38h-16.988223c-5.7780291 0-10.5058885-4.7278594-10.5058885-10.5058885v-16.988223c0-5.77802905 4.7278594-10.5058885 10.5058885-10.5058885h16.988223c5.7780291 0 10.5058885 4.72785945 10.5058885 10.5058885v16.988223c0 5.7780291-4.7278594 10.5058885-10.5058885 10.5058885" fill="#fff"/><path d="m28.2183206 32.4890219-.2178117.1070221-.2178117-.1070221c-1.9572519-.963199-3.6061069-2.3272063-4.907888-4.052151.0020356-.0734465-.0223919-.1521392-.086514-.2381766-1.0340967-1.3912875-1.8422392-3.0165546-2.4020357-4.8296351-.9475827-3.0742626-.8560495-5.6123655-.8519084-5.7193876l.0173028-.4050052.427481-.0451172c2.2839694-.2413244 4.248346-1.1205844 5.4921119-1.8141297 1.3323155-.7439086 2.1659033-1.4531924 2.2015267-1.4846695l.3277354-.2843431.3287532.2864416c.0885496.075545.8956743.7544009 2.1994911 1.482571 1.2437659.6935453 3.2071247 1.5728053 5.4931298 1.8141297l.4274809.0451172.016285.4050052c.0042251.1070221.0966921 2.645125-.8508906 5.7193876-.5597965 1.8130805-1.3689568 3.4383476-2.4030535 4.8296351-.0641221.0870866-.091603.1678778-.0905852.2434228-1.3007634 1.7228462-2.9486005 3.084755-4.902799 4.0469048m10.7816794-8.535538c0-2.800412-.2412214-5.3448102-.7236641-7.5796837-1.3994911-6.48533014-4.8284987-10.3738002-10.275827-10.3738002-5.3862595 0-8.7979644 3.8003342-10.2279898 10.1545098-.5150127 2.2873353-.7725191 4.9072786-.7725191 7.7989741 0 1.2716745.0661578 2.5139703.194402 3.719543.0173028-.0052462.0335878-.0104924.0508906-.0146894 0 0-.0030534.0241325-.0030534.0367233 0 1.4154199 4.3755725 1.6819259 5.4137404 1.0408425 1.3262087 1.7343878 2.9964377 3.1088874 4.9740458 4.0825788l.3704835.1815179.3704835-.1815179c1.9684478-.9694944 3.6335878-2.3376987 4.956743-4.0615941.9862595.6767575 5.1715012.5340614 5.443257-.7795826.0193384-.093382.0325699-.1867641.0325699-.2822446.1292621-1.211868.1964377-2.4625578.1964377-3.7415769" fill="#e8364b"/><path d="m19.5 36v11" fill="#6b6b6b"/><path d="m19.0006301 48c-.5519849 0-1.0006301-.374169-1.0006301-.8368737v-11.3273066c0-.4616507.4486452-.8358197 1.0006301-.8358197s.9993699.374169.9993699.8358197v11.3273066c0 .4627047-.447385.8368737-.9993699.8368737" fill="#fff"/><path d="m34.5 36v11" fill="#6b6b6b"/><path d="m35 48c-.5516373 0-1-.374169-1-.8368737v-11.3273066c0-.4616507.4483627-.8358197 1-.8358197s1 .374169 1 .8358197v11.3273066c0 .4627047-.4483627.8368737-1 .8368737" fill="#fff"/><path d="m53.2609812 26c-.1351723 0-.2725426-.0380494-.3945273-.1163864l-8.5235482-5.4970187c-.343975-.2215817-.4461785-.6860082-.228584-1.0374056.2175944-.3502782.6747625-.4543545 1.0187376-.2327727l8.5235481 5.4970186c.3439751.2215818.4472775.6871274.2285841 1.0374056-.1406671.2260582-.3802408.3491592-.6242103.3491592" fill="#c5e2e0"/><path d="m75.5 36v11" fill="#6b6b6b"/><path d="m75 48c-.5516373 0-1-.374169-1-.8368737v-11.3273066c0-.4616507.4483627-.8358197 1-.8358197s1 .374169 1 .8358197v11.3273066c0 .4627047-.4483627.8368737-1 .8368737" fill="#fff"/><path d="m90.5 34v13" fill="#6b6b6b"/><path d="m91 48c-.5516373 0-1-.4323657-1-.9645872v-13.0708256c0-.5322215.4483627-.9645872 1-.9645872s1 .4323657 1 .9645872v13.0708256c0 .5322215-.4483627.9645872-1 .9645872" fill="#fff"/><path d="m46 19 8 5" fill="#6b6b6b"/><path d="m54.1495278 25c-.1551872 0-.312515-.0430796-.4537888-.1335467l-8.3009101-5.2890962c-.3959949-.2530926-.5137231-.7808175-.2632831-1.1793037.2515103-.3995632.775936-.518032 1.1730012-.2649395l8.3009101 5.2890962c.3959949.2530926.5137231.7808176.2622128 1.1803807-.1605385.2563236-.4366647.3974092-.7181421.3974092" fill="#fff"/><path d="m52.7206426 26c-.2774738 0-.5410203-.1622207-.6599377-.4347515-.1596277-.3677003.006428-.7959629.3706793-.9571021l12.5602426-5.5468667c.3642513-.1611392.788497.0064889.9481248.3741891.1585564.3677003-.006428.7959629-.3706793.9560207l-12.5602426 5.5479481c-.0942768.0410959-.1917676.0605624-.2881871.0605624" fill="#c5e2e0"/><path d="m65 18-13 6" fill="#6b6b6b"/><path d="m51.8556559 25c-.3296853 0-.6442869-.178982-.7843493-.4796315-.1885456-.4042177.0096966-.8747995.4428126-1.0507649l13.2886881-5.4036466c.433116-.1749599.9373406.0100552 1.1258861.4142729.1885456.4032122-.0096966.873794-.4428126 1.0497594l-13.2886881 5.4036466c-.1120499.0452482-.2273321.0663641-.3415368.0663641" fill="#fff"/><path d="m91.1014604 14.0855725c-.8245726-1.1693611-2.1375986-1.8398372-4.0177026-2.0590924-.1533174-.0201249-.3076176-.0264801-.4668318-.0264801-1.6707667 0-3.5626643.8907905-4.6162301 2.5706879-1.0594627-1.6798974-2.9513603-2.5706879-4.6152473-2.5706879-.1611799 0-.3203941.0063552-.4687975.0264801-1.8781383.2192552-3.1911644.8897313-4.0177025 2.0527372-.8117961 1.1555915-1.0771531 2.742279-.7823119 4.7134575.4432445 2.8979819 4.0304789 6.528933 6.9081288 9.4512766.8314522.8431263 1.5774004 1.5993979 2.0638883 2.166072 0 0 .4923848.5899766.9552854.5899766.4560211 0 .9366122-.597391.9366122-.597391.4815739-.5634965 1.2255565-1.3293009 2.0589743-2.1787825 2.852097-2.91387 6.401002-6.5405842 6.8403154-9.4311517.300738-1.9711785.0353809-3.5515108-.7783807-4.7071023" fill="#e8364b"/></g></g></svg>

<?xml version="1.0" encoding="UTF-8"?>
<svg width="130px" height="130px" viewBox="0 0 130 130" version="1.1" xmlns="http://www.w3.org/2000/svg" xmlns:xlink="http://www.w3.org/1999/xlink">
    <!-- Generator: Sketch 61.1 (89650) - https://sketch.com -->
    <title>Group 9</title>
    <desc>Created with Sketch.</desc>
    <g id="Page-1" stroke="none" stroke-width="1" fill="none" fill-rule="evenodd">
        <g id="HOME-RE" transform="translate(-896.000000, -1790.000000)">
            <g id="Group-9" transform="translate(896.000000, 1790.000000)">
                <circle id="Oval-Copy-2" fill="#FF9CA8" cx="65" cy="65" r="65"></circle>
                <g id="Group-69" transform="translate(11.000000, 42.000000)">
                    <path d="M102,48.9994255 C102,50.1037058 91.9264447,51 79.4994721,51 C67.0735553,51 57,50.1037058 57,48.9994255 C57,47.8951451 67.0735553,47 79.4994721,47 C91.9264447,47 102,47.8951451 102,48.9994255" id="Fill-1" fill="#474747" opacity="0.211797805"></path>
                    <path d="M46,49.5 C46,50.8811421 35.7019854,52 22.999484,52 C10.2969826,52 0,50.8811421 0,49.5 C0,48.1188579 10.2969826,47 22.999484,47 C35.7019854,47 46,48.1188579 46,49.5" id="Fill-3" fill="#474747" opacity="0.211797805"></path>
                    <path d="M98.6962259,19 C98.4436136,19 98.200319,18.8475392 98.0771188,18.5815927 C97.9011184,18.2033066 98.0367422,17.7390464 98.37839,17.5441718 L107.986973,12.085389 C108.328621,11.8905144 108.747916,12.0406825 108.922881,12.4189686 C109.098882,12.7972546 108.963258,13.2615148 108.62161,13.4552431 L99.0130265,18.9151722 C98.9115675,18.9724883 98.8028614,19 98.6962259,19" id="Fill-5" fill="#C5E2E0"></path>
                    <path d="M107.758258,14 C107.609181,14 107.458974,13.9568499 107.326838,13.8672304 C106.98238,13.6337772 106.896548,13.1701901 107.134845,12.8338405 L109.617201,9.32097853 C109.855498,8.98241609 110.328704,8.89832868 110.673162,9.13288828 C111.01762,9.36634147 111.103452,9.82882219 110.865155,10.1662782 L108.382799,13.6791402 C108.234852,13.8871459 107.998813,14 107.758258,14" id="Fill-7" fill="#C5E2E0"></path>
                    <path d="M113.196296,15 C113.113756,15 113.030019,14.9870091 112.947478,14.9610274 L108.554886,13.5485655 C108.132613,13.4115709 107.902935,12.9639763 108.039306,12.5470875 C108.176874,12.1313796 108.630249,11.9034489 109.052522,12.0392626 L113.445114,13.4517245 C113.867387,13.5875381 114.097065,14.0363136 113.960694,14.4520215 C113.849443,14.7874221 113.534832,15 113.196296,15" id="Fill-9" fill="#C5E2E0"></path>
                    <path d="M109.703509,14 C109.448254,14 109.202415,13.8715823 109.077926,13.6475756 C108.900084,13.3289453 109.037127,12.937899 109.382348,12.7737561 L112.976837,11.0714979 C113.321013,10.9083206 113.74574,11.0338416 113.922535,11.3524719 C114.099331,11.6711022 113.963334,12.0621485 113.618113,12.2262914 L110.023623,13.9285496 C109.921103,13.9768269 109.81126,14 109.703509,14" id="Fill-11" fill="#C5E2E0"></path>
                    <line x1="107" y1="12" x2="97" y2="17" id="Fill-13" fill="#6B6B6B"></line>
                    <path d="M96.8772806,18 C96.5593187,18 96.2523971,17.8269459 96.0967283,17.5249278 C95.8759214,17.0950481 96.0459427,16.5670676 96.4765161,16.3466164 L106.723059,11.0965724 C107.154736,10.8761213 107.682465,11.0458687 107.903272,11.4757484 C108.124079,11.9056281 107.954057,12.4336086 107.523484,12.6540598 L97.276941,17.9041038 C97.148873,17.9691368 97.0119728,18 96.8772806,18" id="Fill-15" fill="#FFFFFF"></path>
                    <line x1="110" y1="9" x2="107" y2="12" id="Fill-17" fill="#6B6B6B"></line>
                    <path d="M107.838302,13 C107.673495,13 107.507631,12.9517135 107.36184,12.8519913 C106.98046,12.5895645 106.885379,12.0710092 107.149493,11.6920649 L109.471583,8.35924468 C109.734641,7.98135011 110.257586,7.88582676 110.63791,8.14825354 C111.019291,8.41068033 111.114372,8.92923567 110.851315,9.30817995 L108.528168,12.6410002 C108.365474,12.8740351 108.103473,13 107.838302,13" id="Fill-19" fill="#FFFFFF"></path>
                    <line x1="111" y1="14" x2="107" y2="13" id="Fill-21" fill="#6B6B6B"></line>
                    <path d="M112.093948,15 C112.001556,15 111.906883,14.9859931 111.81335,14.9579792 L107.624916,13.6693413 C107.150409,13.5217298 106.890343,13.0401068 107.044329,12.5908075 C107.199456,12.1415082 107.710464,11.8958481 108.186111,12.0423822 L112.374546,13.33102 C112.850193,13.4775541 113.11026,13.9602546 112.955132,14.4095539 C112.830803,14.7705018 112.474922,15 112.093948,15" id="Fill-23" fill="#FFFFFF"></path>
                    <line x1="112" y1="11" x2="108" y2="13" id="Fill-25" fill="#6B6B6B"></line>
                    <path d="M107.948938,14 C107.605005,14 107.273013,13.8126067 107.104629,13.48437 C106.865786,13.0188708 107.049695,12.4483358 107.515439,12.2096182 L111.618757,10.1053228 C112.0845,9.86541159 112.655334,10.0492241 112.895371,10.515917 C113.134214,10.9814163 112.950305,11.5519513 112.484561,11.7906688 L108.381243,13.8961579 C108.242715,13.9665795 108.094632,14 107.948938,14" id="Fill-27" fill="#FFFFFF"></path>
                    <path d="M34.4941115,38 L17.5058885,38 C11.7268114,38 7,33.2721406 7,27.4941115 L7,10.5058885 C7,4.72785945 11.7268114,0 17.5058885,0 L34.4941115,0 C40.2721406,0 45,4.72785945 45,10.5058885 L45,27.4941115 C45,33.2721406 40.2721406,38 34.4941115,38" id="Fill-29" fill="#C5E2E0"></path>
                    <path d="M35.4941115,38 L18.5058885,38 C12.7268114,38 8,33.2721406 8,27.4941115 L8,10.5058885 C8,4.72785945 12.7268114,0 18.5058885,0 L35.4941115,0 C41.2721406,0 46,4.72785945 46,10.5058885 L46,27.4941115 C46,33.2721406 41.2721406,38 35.4941115,38" id="Fill-31" fill="#FFFFFF"></path>
                    <path d="M88.4941115,38 L71.5058885,38 C65.7278594,38 61,33.2721406 61,27.4941115 L61,10.5058885 C61,4.72785945 65.7278594,0 71.5058885,0 L88.4941115,0 C94.2731886,0 99,4.72785945 99,10.5058885 L99,27.4941115 C99,33.2721406 94.2731886,38 88.4941115,38" id="Fill-33" fill="#C5E2E0"></path>
                    <path d="M90.4941115,38 L73.5058885,38 C67.7278594,38 63,33.2721406 63,27.4941115 L63,10.5058885 C63,4.72785945 67.7278594,0 73.5058885,0 L90.4941115,0 C96.2721406,0 101,4.72785945 101,10.5058885 L101,27.4941115 C101,33.2721406 96.2721406,38 90.4941115,38" id="Fill-35" fill="#FFFFFF"></path>
                    <path d="M28.2183206,32.4890219 L28.0005089,32.596044 L27.7826972,32.4890219 C25.8254453,31.5258229 24.1765903,30.1618156 22.8748092,28.4368709 C22.8768448,28.3634244 22.8524173,28.2847317 22.7882952,28.1986943 C21.7541985,26.8074068 20.946056,25.1821397 20.3862595,23.3690592 C19.4386768,20.2947966 19.53021,17.7566937 19.5343511,17.6496716 L19.5516539,17.2446664 L19.9791349,17.1995492 C22.2631043,16.9582248 24.2274809,16.0789648 25.4712468,15.3854195 C26.8035623,14.6415109 27.6371501,13.9322271 27.6727735,13.90075 L28.0005089,13.6164069 L28.3292621,13.9028485 C28.4178117,13.9783935 29.2249364,14.6572494 30.5287532,15.3854195 C31.7725191,16.0789648 33.7358779,16.9582248 36.021883,17.1995492 L36.4493639,17.2446664 L36.4656489,17.6496716 C36.469874,17.7566937 36.562341,20.2947966 35.6147583,23.3690592 C35.0549618,25.1821397 34.2458015,26.8074068 33.2117048,28.1986943 C33.1475827,28.2857809 33.1201018,28.3665721 33.1211196,28.4421171 C31.8203562,30.1649633 30.1725191,31.5268721 28.2183206,32.4890219 M39,23.9534839 C39,21.1530719 38.7587786,18.6086737 38.2763359,16.3738002 C36.8768448,9.88847006 33.4478372,6 28.0005089,6 C22.6142494,6 19.2025445,9.8003342 17.7725191,16.1545098 C17.2575064,18.4418451 17,21.0617884 17,23.9534839 C17,25.2251584 17.0661578,26.4674542 17.194402,27.6730269 C17.2117048,27.6677807 17.2279898,27.6625345 17.2452926,27.6583375 C17.2452926,27.6583375 17.2422392,27.68247 17.2422392,27.6950608 C17.2422392,29.1104807 21.6178117,29.3769867 22.6559796,28.7359033 C23.9821883,30.4702911 25.6524173,31.8447907 27.6300254,32.8184821 L28.0005089,33 L28.3709924,32.8184821 C30.3394402,31.8489877 32.0045802,30.4807834 33.3277354,28.756888 C34.3139949,29.4336455 38.4992366,29.2909494 38.7709924,27.9773054 C38.7903308,27.8839234 38.8035623,27.7905413 38.8035623,27.6950608 L38.8035623,27.6950608 C38.9328244,26.4831928 39,25.232503 39,23.9534839" id="Fill-37" fill="#E8364B"></path>
                    <line x1="19.5" y1="36" x2="19.5" y2="47" id="Fill-39" fill="#6B6B6B"></line>
                    <path d="M19.0006301,48 C18.4486452,48 18,47.625831 18,47.1631263 L18,35.8358197 C18,35.374169 18.4486452,35 19.0006301,35 C19.552615,35 20,35.374169 20,35.8358197 L20,47.1631263 C20,47.625831 19.552615,48 19.0006301,48" id="Fill-41" fill="#FFFFFF"></path>
                    <line x1="34.5" y1="36" x2="34.5" y2="47" id="Fill-43" fill="#6B6B6B"></line>
                    <path d="M35,48 C34.4483627,48 34,47.625831 34,47.1631263 L34,35.8358197 C34,35.374169 34.4483627,35 35,35 C35.5516373,35 36,35.374169 36,35.8358197 L36,47.1631263 C36,47.625831 35.5516373,48 35,48" id="Fill-45" fill="#FFFFFF"></path>
                    <path d="M53.2609812,26 C53.1258089,26 52.9884386,25.9619506 52.8664539,25.8836136 L44.3429057,20.3865949 C43.9989307,20.1650132 43.8967272,19.7005867 44.1143217,19.3491893 C44.3319161,18.9989111 44.7890842,18.8948348 45.1330593,19.1164166 L53.6566074,24.6134352 C54.0005825,24.835017 54.1038849,25.3005626 53.8851915,25.6508408 C53.7445244,25.876899 53.5049507,26 53.2609812,26" id="Fill-47" fill="#C5E2E0"></path>
                    <line x1="75.5" y1="36" x2="75.5" y2="47" id="Fill-49" fill="#6B6B6B"></line>
                    <path d="M75,48 C74.4483627,48 74,47.625831 74,47.1631263 L74,35.8358197 C74,35.374169 74.4483627,35 75,35 C75.5516373,35 76,35.374169 76,35.8358197 L76,47.1631263 C76,47.625831 75.5516373,48 75,48" id="Fill-51" fill="#FFFFFF"></path>
                    <line x1="90.5" y1="34" x2="90.5" y2="47" id="Fill-53" fill="#6B6B6B"></line>
                    <path d="M91,48 C90.4483627,48 90,47.5676343 90,47.0354128 L90,33.9645872 C90,33.4323657 90.4483627,33 91,33 C91.5516373,33 92,33.4323657 92,33.9645872 L92,47.0354128 C92,47.5676343 91.5516373,48 91,48" id="Fill-55" fill="#FFFFFF"></path>
                    <line x1="46" y1="19" x2="54" y2="24" id="Fill-57" fill="#6B6B6B"></line>
                    <path d="M54.1495278,25 C53.9943406,25 53.8370128,24.9569204 53.695739,24.8664533 L45.3948289,19.5773571 C44.998834,19.3242645 44.8811058,18.7965396 45.1315458,18.3980534 C45.3830561,17.9984902 45.9074818,17.8800214 46.304547,18.1331139 L54.6054571,23.4222101 C55.001452,23.6753027 55.1191802,24.2030277 54.8676699,24.6025908 C54.7071314,24.8589144 54.4310052,25 54.1495278,25" id="Fill-59" fill="#FFFFFF"></path>
                    <path d="M52.7206426,26 C52.4431688,26 52.1796223,25.8377793 52.0607049,25.5652485 C51.9010772,25.1975482 52.0671329,24.7692856 52.4313842,24.6081464 L64.9916268,19.0612797 C65.3558781,18.9001405 65.7801238,19.0677686 65.9397516,19.4354688 C66.098308,19.8031691 65.9333236,20.2314317 65.5690723,20.3914895 L53.0088297,25.9394376 C52.9145529,25.9805335 52.8170621,26 52.7206426,26" id="Fill-61" fill="#C5E2E0"></path>
                    <line x1="65" y1="18" x2="52" y2="24" id="Fill-63" fill="#6B6B6B"></line>
                    <path d="M51.8556559,25 C51.5259706,25 51.211369,24.821018 51.0713066,24.5203685 C50.882761,24.1161508 51.0810032,23.645569 51.5141192,23.4696036 L64.8028073,18.065957 C65.2359233,17.8909971 65.7401479,18.0760122 65.9286934,18.4802299 C66.117239,18.8834421 65.9189968,19.3540239 65.4858808,19.5299893 L52.1971927,24.9336359 C52.0851428,24.9788841 51.9698606,25 51.8556559,25" id="Fill-65" fill="#FFFFFF"></path>
                    <path d="M91.1014604,14.0855725 C90.2768878,12.9162114 88.9638618,12.2457353 87.0837578,12.0264801 C86.9304404,12.0063552 86.7761402,12 86.616926,12 C84.9461593,12 83.0542617,12.8907905 82.0006959,14.5706879 C80.9412332,12.8907905 79.0493356,12 77.3854486,12 C77.2242687,12 77.0650545,12.0063552 76.9166511,12.0264801 C75.0385128,12.2457353 73.7254867,12.9162114 72.8989486,14.0792173 C72.0871525,15.2348088 71.8217955,16.8214963 72.1166367,18.7926748 C72.5598812,21.6906567 76.1471156,25.3216078 79.0247655,28.2439514 C79.8562177,29.0870777 80.6021659,29.8433493 81.0886538,30.4100234 C81.0886538,30.4100234 81.5810386,31 82.0439392,31 C82.4999603,31 82.9805514,30.402609 82.9805514,30.402609 C83.4621253,29.8391125 84.2061079,29.0733081 85.0395257,28.2238265 C87.8916227,25.3099565 91.4405277,21.6832423 91.8798411,18.7926748 C92.1805791,16.8214963 91.915222,15.241164 91.1014604,14.0855725" id="Fill-67" fill="#E8364B"></path>
                </g>
            </g>
        </g>
    </g>
</svg>
